contributed-vectors/jakdojade.svg

<svg xmlns="http://www.w3.org/2000/svg" xml:space="preserve" style="fill-rule:evenodd;clip-rule:evenodd;stroke-linejoin:round;stroke-miterlimit:2" viewBox="0 0 192 192"><path d="M164.5 21.5c0-5.519-4.481-10-10-10h-133c-5.519 0-10 4.481-10 10v133c0 5.519 4.481 10 10 10h133c5.519 0 10-4.481 10-10v-133Z" style="fill:#54688c" transform="translate(8 8)"/><path d="m64.813 99.539-18.909 7.812c15.266 24.452 31.03 33.265 31.03 33.265l6.508-12.637c-19.735-11.877-18.618-28.44-18.618-28.44" style="fill:#bd9aff" transform="translate(25.031 23.492) scale(.7381)"/><path d="M91.237 142.569 78.346 131.78s23.118-60.819 50.58-76.8l9.816 22.723s-35.369 14.22-47.505 64.866" style="fill:#bd9aff" transform="translate(26.978 22.805) scale(.7381)"/><circle cx="83.442" cy="135.224" r="12.558" style="fill:#fff" transform="translate(26.663 24.638) scale(.7381)"/><circle cx="83.442" cy="135.224" r="12.558" style="fill:#fff" transform="matrix(.89199 0 0 .89199 -9.997 -25.302)"/><circle cx="83.442" cy="135.224" r="12.558" style="fill:#fff" transform="translate(36.176 -72.807) scale(1.06868)"/></svg>

<?xml version="1.0" encoding="UTF-8" standalone="no"?>
<!DOCTYPE svg PUBLIC "-//W3C//DTD SVG 1.1//EN" "http://www.w3.org/Graphics/SVG/1.1/DTD/svg11.dtd">
<svg width="100%" height="100%" viewBox="0 0 192 192" version="1.1" xmlns="http://www.w3.org/2000/svg" xmlns:xlink="http://www.w3.org/1999/xlink" xml:space="preserve" xmlns:serif="http://www.serif.com/" style="fill-rule:evenodd;clip-rule:evenodd;stroke-linejoin:round;stroke-miterlimit:2;">
    <g id="Layer1">
        <g transform="matrix(1,0,0,1,8,8)">
            <path d="M164.5,21.5C164.5,15.981 160.019,11.5 154.5,11.5L21.5,11.5C15.981,11.5 11.5,15.981 11.5,21.5L11.5,154.5C11.5,160.019 15.981,164.5 21.5,164.5L154.5,164.5C160.019,164.5 164.5,160.019 164.5,154.5L164.5,21.5Z" style="fill:rgb(84,104,140);"/>
        </g>
        <g transform="matrix(0.738101,0,0,0.738101,25.0314,23.4925)">
            <path d="M64.813,99.539L45.904,107.351C61.17,131.803 76.934,140.616 76.934,140.616L83.442,127.979C63.707,116.102 64.824,99.539 64.824,99.539" style="fill:rgb(189,154,255);"/>
            <g transform="matrix(1,0,0,1,2.63757,-0.930908)">
                <path d="M91.237,142.569L78.346,131.78C78.346,131.78 101.464,70.961 128.926,54.98L138.742,77.703C138.742,77.703 103.373,91.923 91.237,142.569" style="fill:rgb(189,154,255);"/>
            </g>
            <g transform="matrix(1,0,0,1,2.21091,1.55151)">
                <circle cx="83.442" cy="135.224" r="12.558" style="fill:white;"/>
            </g>
            <g transform="matrix(1.20849,0,0,1.20849,-47.4579,-66.1086)">
                <circle cx="83.442" cy="135.224" r="12.558" style="fill:white;"/>
            </g>
            <g transform="matrix(1.44788,0,0,1.44788,15.0984,-130.469)">
                <circle cx="83.442" cy="135.224" r="12.558" style="fill:white;"/>
            </g>
        </g>
    </g>
</svg>
